!!!COM: Bach, Johann Sebastian
!!!CDT: 1685/3//-1750/7/28/
!!!OTL@@DE: O Welt, sieh hier dein Leben
!!!AGN: 4-Part Chorale
!!!SCT: BH 366
!!!SCT: BWV 394
**harm	**root	**kern	**kern	**kern	**kern
!	!	!bass	!tenor	!alto	!soprno
*	*Iorgan	*Iorgan	*Iorgan	*Iorgan	*Iorgan
*M4/4	*M4/4	*M4/4	*M4/4	*M4/4	*M4/4
*met(c)	*met(c)	*met(c)	*met(c)	*met(c)	*met(c)
*MM60	*MM60	*MM60	*MM60	*MM60	*MM60
*k[f#]	*k[f#]	*k[f#]	*k[f#]	*k[f#]	*k[f#]
*G:	*G:	*G:	*G:	*G:	*G:
I	4AA	4G	4d	8g	8b
.	.	.	.	8f#	8a
=1	=1	=1	=1	=1	=1
IV	4DD	8c	8e	4.e	4g
.	.	8B	8d	.	.
ii	4BB	4A	4c	.	4a
.	.	.	.	8f#	.
I	4AA	4G	4d	4.g	8b
.	.	.	.	.	8cc
Ib	4AA	4BB	4G	.	4dd
.	.	.	.	8d	.
=2	=2	=2	=2	=2	=2
ii7	4BB	4AA	4G	4e	2cc
V7	4EE	4D	4F#	4d	.
I;	4AA;	4GG;	4G;	4d;	4b;
I	4AA	8G	4d	4g	8b
.	.	8A	.	.	8cc
=3	=3	=3	=3	=3	=3
Ib	4AA	4B	4d	8g	4dd
.	.	.	.	8f#	.
Ib	4AA	8BB	4d	8g	4dd
.	.	8C	.	8a	.
V	4EE	4D	8d	8f#	4a
.	.	.	8c	8e	.
I	4AA	8G	4B	4d	8b
.	.	8F#	.	.	8a
=4	=4	=4	=4	=4	=4
vi7	4FF#	4E	4B	4d	2g
V7/V	4BB	4AA	4A	4c#	.
V;	4EE;	4D;	4A;	4d;	4f#;
V	4EE	8D	4F#	4A	4d
.	.	8C	.	.	.
=5	=5	=5	=5	=5	=5
Ib	8AA	8BB	4G	8d	4g
IV	8DD	8C	.	8e	.
viioc	4GG#	8BB	4c	4f#	4a
.	.	8AA	.	.	.
I	8AA	4GG	8d	8g	8b
viioc	8GG#	.	8c	8f#	8a
I	8AA	8G	8d	8g	8b
iib	8BB	8C	8e	8a	8cc
=6	=6	=6	=6	=6	=6
V;	2EE;	2D;	2d;	2f#;	2a;
r	4r	4r	4r	4r	4r
V/vi	4CC#	4BB	4d#	4f#	8b
.	.	.	.	.	8a
!!linebreak: 2
=7	=7	=7	=7	=7	=7
vi	4FF#	4E	8B	4e	4g
.	.	.	8c	.	.
Vb	4EE	4F#	8B	4d	4a
.	.	.	8A	.	.
I	4AA	8G	4G	8d	8b
.	.	8A	.	8c	8cc
I	4AA	8G	4G	4B	4dd
.	.	8F#	.	.	.
=8	=8	=8	=8	=8	=8
IVb	4DD	4E	8G	8B	2cc
.	.	.	4e	16A	.
.	.	.	.	16G	.
V7b	4EE	4F#	.	4A	.
.	.	.	8d	.	.
I;	4AA;	4G;	4d;	4G;	4b;
vi	4FF#	4E	4e	4g	8b
.	.	.	.	.	8cc
=9	=9	=9	=9	=9	=9
Vb	8EE	8F#	4d	8a	4dd
I	8AA	8G	.	8b	.
Vb	4EE	8F#	4A	8a	4dd
.	.	8E	.	8g	.
V	4EE	8D	8A	8f#	4a
.	.	8E	8G	8e	.
iiib	8CC#	8D	8F#	4f#	8b
v7c/iii	8GG#	8C#	8E	.	8a
=10	=10	=10	=10	=10	=10
iii7b	8CC#	4BB	8D	8f#	2g
vic	8FF#	.	4B	16e	.
.	.	.	.	16d	.
viio7/V	4DD#	4C#	.	4e	.
.	.	.	8A	.	.
V;	4EE;	4D;	4A;	4d;	4f#;
iii	4CC#	4BB	8B	8d	4d
.	.	.	8A	8c	.
=11	=11	=11	=11	=11	=11
vi	4FF#	4E	4G	8B	4g
.	.	.	.	8c	.
iii7b	8CC#	8D	8F#	8B	4a
iib	8BB	8C	8E	8A	.
Ib	4AA	8BB	4.D	4G	8b
.	.	8AA	.	.	8cc
Ib	8AA	8BB	.	4g	8dd
IV	8DD	8C	8E	.	8cc
=12	=12	=12	=12	=12	=12
iiib	8CC#	8D	8F#	8d	4b
IV7	8DD	8C	4G	8e	.
V	4EE	4D	.	8A	4a
.	.	.	8F#	8d	.
I;	4AA;	4GG;	4D;	4B;	4g;
==	==	==	==	==	==
*-	*-	*-	*-	*-	*-
!!chor2scor: -l 2 -o %b.pmx
!!!YEC: Copyright 1994, David Huron
!!!YEC: Changes/Additions 2001 by Craig Stuart Sapp
!!!YEN: United States of America
!!!SMA: 371 Bach Chorales, edited by Ludwig Erk, C.F. Peters
!!!PDT: 1850, 1865
!!!ONB: Harmony and Root analysis done manually
